Numix-GalliumOS/22/actions/split.svg

<?xml version="1.0" encoding="UTF-8" standalone="no"?>
<svg
   xmlns:dc="http://purl.org/dc/elements/1.1/"
   xmlns:cc="http://creativecommons.org/ns#"
   xmlns:rdf="http://www.w3.org/1999/02/22-rdf-syntax-ns#"
   xmlns:svg="http://www.w3.org/2000/svg"
   xmlns="http://www.w3.org/2000/svg"
   xmlns:sodipodi="http://sodipodi.sourceforge.net/DTD/sodipodi-0.dtd"
   xmlns:inkscape="http://www.inkscape.org/namespaces/inkscape"
   width="22"
   viewBox="0 0 22 22"
   height="22"
   id="svg2"
   version="1.1"
   inkscape:version="0.91 r13725"
   sodipodi:docname="split.svg">
  <metadata
     id="metadata10">
    <rdf:RDF>
      <cc:Work
         rdf:about="">
        <dc:format>image/svg+xml</dc:format>
        <dc:type
           rdf:resource="http://purl.org/dc/dcmitype/StillImage" />
        <dc:title></dc:title>
      </cc:Work>
    </rdf:RDF>
  </metadata>
  <defs
     id="defs8" />
  <sodipodi:namedview
     pagecolor="#ffffff"
     bordercolor="#666666"
     borderopacity="1"
     objecttolerance="10"
     gridtolerance="10"
     guidetolerance="10"
     inkscape:pageopacity="0"
     inkscape:pageshadow="2"
     inkscape:window-width="1366"
     inkscape:window-height="704"
     id="namedview6"
     showgrid="false"
     inkscape:object-nodes="true"
     inkscape:zoom="1"
     inkscape:cx="5.3227994"
     inkscape:cy="7.25"
     inkscape:window-x="0"
     inkscape:window-y="27"
     inkscape:window-maximized="1"
     inkscape:current-layer="svg2">
    <inkscape:grid
       type="xygrid"
       id="grid4138" />
  </sodipodi:namedview>
  <rect
     style="opacity:1;fill:#268bd2;fill-opacity:1;stroke:none;stroke-width:2;stroke-linecap:round;stroke-linejoin:round;stroke-miterlimit:4;stroke-dasharray:none;stroke-opacity:1"
     id="rect4140"
     width="2"
     height="5.0001559"
     x="5"
     y="-10"
     transform="scale(1,-1)" />
  <path
     style="opacity:1;fill:#268bd2;fill-opacity:1;stroke:none;stroke-width:2;stroke-linecap:round;stroke-linejoin:round;stroke-miterlimit:4;stroke-dasharray:none;stroke-opacity:1"
     d="M 6,2 10,6 2,6 Z"
     id="rect4144"
     inkscape:connector-curvature="0"
     sodipodi:nodetypes="cccc"
     inkscape:transform-center-x="-0.1767767"
     inkscape:transform-center-y="0.97227183" />
  <rect
     y="-10.000156"
     x="15"
     height="5.0001559"
     width="2"
     id="rect4147"
     style="opacity:1;fill:#268bd2;fill-opacity:1;stroke:none;stroke-width:2;stroke-linecap:round;stroke-linejoin:round;stroke-miterlimit:4;stroke-dasharray:none;stroke-opacity:1"
     transform="scale(1,-1)" />
  <path
     sodipodi:nodetypes="cccc"
     inkscape:connector-curvature="0"
     id="path4175"
     d="m 16,2 4,4 -8,0 z"
     style="opacity:1;fill:#268bd2;fill-opacity:1;stroke:none;stroke-width:2;stroke-linecap:round;stroke-linejoin:round;stroke-miterlimit:4;stroke-dasharray:none;stroke-opacity:1" />
  <path
     style="color:#000000;font-style:normal;font-variant:normal;font-weight:normal;font-stretch:normal;font-size:medium;line-height:normal;font-family:sans-serif;text-indent:0;text-align:start;text-decoration:none;text-decoration-line:none;text-decoration-style:solid;text-decoration-color:#000000;letter-spacing:normal;word-spacing:normal;text-transform:none;direction:ltr;block-progression:tb;writing-mode:lr-tb;baseline-shift:baseline;text-anchor:start;white-space:normal;clip-rule:nonzero;display:inline;overflow:visible;visibility:visible;opacity:1;isolation:auto;mix-blend-mode:normal;color-interpolation:sRGB;color-interpolation-filters:linearRGB;solid-color:#000000;solid-opacity:1;fill:#268bd2;fill-opacity:1;fill-rule:evenodd;stroke:none;stroke-width:2;stroke-linecap:butt;stroke-linejoin:miter;stroke-miterlimit:4;stroke-dasharray:none;stroke-dashoffset:0;stroke-opacity:1;color-rendering:auto;image-rendering:auto;shape-rendering:auto;text-rendering:auto;enable-background:accumulate"
     d="M 6.4140625 8.5859375 L 5 10 L 10 15 L 10 20 L 12 20 L 12 15 L 17 10 L 15.585938 8.5859375 L 11 13.171875 L 6.4140625 8.5859375 z "
     id="path4177" />
</svg>

<svg xmlns="http://www.w3.org/2000/svg" viewBox="0 0 22 22">
 <rect width="2" height="5" x="5" y="-10" transform="scale(1,-1)" style="fill:#268bd2;opacity:1;fill-opacity:1;stroke:none"/>
 <path d="m 6 2 4 4 -8 0" style="fill:#268bd2;opacity:1;fill-opacity:1;stroke:none"/>
 <rect y="-10" x="15" height="5" width="2" transform="scale(1,-1)" style="fill:#268bd2;opacity:1;fill-opacity:1;stroke:none"/>
 <path d="m 16 2 4 4 -8 0 z" style="fill:#268bd2;opacity:1;fill-opacity:1;stroke:none"/>
 <path d="m 6.414 8.586 l -1.414 1.414 l 5 5 l 0 5 l 2 0 l 0 -5 l 5 -5 l -1.414 -1.414 l -4.586 4.586 l -4.586 -4.586 z" mix-blend-mode="normal" isolation="auto" white-space="normal" solid-opacity="1" solid-color="#000000" style="visibility:visible;shape-rendering:auto;color-interpolation-filters:linearRGB;fill:#268bd2;opacity:1;image-rendering:auto;fill-opacity:1;stroke:none;display:inline;color:#000;fill-rule:evenodd;color-rendering:auto;color-interpolation:sRGB"/>
</svg>
